static/files/images/img-sales.svg

<svg width="67" height="68" viewBox="0 0 67 68" version="1.1" xmlns="http://www.w3.org/2000/svg" xmlns:xlink="http://www.w3.org/1999/xlink">
<title>icons8-org_unit</title>
<desc>Created using Figma</desc>
<g id="Canvas" transform="translate(-2409 -1821)">
<g id="icons8-org_unit">
<g id="Vector">
<use xlink:href="#path0_stroke" transform="translate(2450.62 1822.83)" fill="#3D54FF"/>
</g>
<g id="Vector">
<use xlink:href="#path1_stroke" transform="translate(2410 1822.83)" fill="#3D54FF"/>
</g>
<g id="Vector">
<use xlink:href="#path2_stroke" transform="translate(2434.38 1834.2)" fill="#3D54FF"/>
</g>
<g id="Vector">
<use xlink:href="#path3_stroke" transform="translate(2450.62 1863.45)" fill="#3D54FF"/>
</g>
<g id="Vector">
<use xlink:href="#path4_stroke" transform="translate(2410 1864.27)" fill="#FF842B"/>
</g>
<g id="Vector">
<use xlink:href="#path5_stroke" transform="translate(2410.49 1863.45)" fill="#FF842B"/>
</g>
<g id="Vector">
<use xlink:href="#path6_stroke" transform="translate(2410 1863.45)" fill="#FF842B"/>
</g>
<g id="Vector">
<use xlink:href="#path7_stroke" transform="translate(2418.77 1871.58)" fill="#FF842B"/>
</g>
<g id="Vector">
<use xlink:href="#path8_stroke" transform="translate(2426.9 1879.7)" fill="#FF842B"/>
</g>
<g id="Vector">
<use xlink:href="#path9_stroke" transform="translate(2410 1863.45)" fill="#3D54FF"/>
</g>
<g id="Vector">
<use xlink:href="#path2_stroke" transform="translate(2434.38 1876.45)" fill="#3D54FF"/>
</g>
<g id="Vector">
<use xlink:href="#path10_stroke" transform="translate(2463.62 1847.2)" fill="#3D54FF"/>
</g>
<g id="Vector">
<use xlink:href="#path10_stroke" transform="translate(2421.38 1847.2)" fill="#3D54FF"/>
</g>
</g>
</g>
<defs>
<path id="path0_stroke" d="M 0 0L 0 -1C -0.552285 -1 -1 -0.552285 -1 2.22045e-16L 0 0ZM 24.375 0L 25.375 0C 25.375 -0.552285 24.9273 -1 24.375 -1L 24.375 0ZM 24.375 24.375L 24.375 25.375C 24.9273 25.375 25.375 24.9273 25.375 24.375L 24.375 24.375ZM 0 24.375L -1 24.375C -1 24.9273 -0.552285 25.375 2.22045e-16 25.375L 0 24.375ZM 0 1L 24.375 1L 24.375 -1L 0 -1L 0 1ZM 23.375 0L 23.375 24.375L 25.375 24.375L 25.375 0L 23.375 0ZM 24.375 23.375L 0 23.375L 0 25.375L 24.375 25.375L 24.375 23.375ZM 1 24.375L 1 18.8906L -1 18.8906L -1 24.375L 1 24.375ZM 1 18.8906L 1 0L -1 0L -1 18.8906L 1 18.8906Z"/>
<path id="path1_stroke" d="M 0 0L 0 -1C -0.552285 -1 -1 -0.552285 -1 2.22045e-16L 0 0ZM 24.375 0L 25.375 0C 25.375 -0.552285 24.9273 -1 24.375 -1L 24.375 0ZM 24.375 24.375L 24.375 25.375C 24.9273 25.375 25.375 24.9273 25.375 24.375L 24.375 24.375ZM 0 24.375L -1 24.375C -1 24.9273 -0.552285 25.375 2.22045e-16 25.375L 0 24.375ZM 0 1L 24.375 1L 24.375 -1L 0 -1L 0 1ZM 23.375 0L 23.375 19.6528L 25.375 19.6528L 25.375 0L 23.375 0ZM 23.375 19.6528L 23.375 24.375L 25.375 24.375L 25.375 19.6528L 23.375 19.6528ZM 24.375 23.375L 0 23.375L 0 25.375L 24.375 25.375L 24.375 23.375ZM 1 24.375L 1 0L -1 0L -1 24.375L 1 24.375Z"/>
<path id="path2_stroke" d="M 0 1L 16.25 1L 16.25 -1L 0 -1L 0 1Z"/>
<path id="path3_stroke" d="M 0 0L 0 -1C -0.552285 -1 -1 -0.552285 -1 2.22045e-16L 0 0ZM 24.375 0L 25.375 0C 25.375 -0.552285 24.9273 -1 24.375 -1L 24.375 0ZM 24.375 24.375L 24.375 25.375C 24.9273 25.375 25.375 24.9273 25.375 24.375L 24.375 24.375ZM 0 24.375L -1 24.375C -1 24.9273 -0.552285 25.375 2.22045e-16 25.375L 0 24.375ZM 0 1L 6.39925 1L 6.39925 -1L 0 -1L 0 1ZM 6.39925 1L 24.375 1L 24.375 -1L 6.39925 -1L 6.39925 1ZM 23.375 0L 23.375 24.375L 25.375 24.375L 25.375 0L 23.375 0ZM 24.375 23.375L 0 23.375L 0 25.375L 24.375 25.375L 24.375 23.375ZM 1 24.375L 1 0L -1 0L -1 24.375L 1 24.375Z"/>
<path id="path4_stroke" d="M 24.2696 0.707107C 24.6601 0.316583 24.6601 -0.316583 24.2696 -0.707107C 23.8791 -1.09763 23.2459 -1.09763 22.8554 -0.707107L 24.2696 0.707107ZM -0.707107 22.8554C -1.09763 23.2459 -1.09763 23.8791 -0.707107 24.2696C -0.316583 24.6601 0.316583 24.6601 0.707107 24.2696L -0.707107 22.8554ZM 22.8554 -0.707107L -0.707107 22.8554L 0.707107 24.2696L 24.2696 0.707107L 22.8554 -0.707107Z"/>
<path id="path5_stroke" d="M 8.34461 0.707107C 8.73513 0.316582 8.73513 -0.316583 8.34461 -0.707107C 7.95408 -1.09763 7.32092 -1.09763 6.93039 -0.707107L 8.34461 0.707107ZM -0.707107 6.93039C -1.09763 7.32092 -1.09763 7.95408 -0.707106 8.34461C -0.316582 8.73513 0.316583 8.73513 0.707107 8.34461L -0.707107 6.93039ZM 6.93039 -0.707107L -0.707107 6.93039L 0.707107 8.34461L 8.34461 0.707107L 6.93039 -0.707107Z"/>
<path id="path6_stroke" d="M 16.9571 0.707107C 17.3476 0.316583 17.3476 -0.316583 16.9571 -0.707107C 16.5666 -1.09763 15.9334 -1.09763 15.5429 -0.707107L 16.9571 0.707107ZM -0.707107 15.5429C -1.09763 15.9334 -1.09763 16.5666 -0.707107 16.9571C -0.316583 17.3476 0.316583 17.3476 0.707107 16.9571L -0.707107 15.5429ZM 15.5429 -0.707107L -0.707107 15.5429L 0.707107 16.9571L 16.9571 0.707107L 15.5429 -0.707107Z"/>
<path id="path7_stroke" d="M 16.3071 0.707107C 16.6976 0.316583 16.6976 -0.316582 16.3071 -0.707107C 15.9166 -1.09763 15.2834 -1.09763 14.8929 -0.707107L 16.3071 0.707107ZM -0.707107 14.8929C -1.09763 15.2834 -1.09763 15.9166 -0.707107 16.3071C -0.316583 16.6976 0.316582 16.6976 0.707106 16.3071L -0.707107 14.8929ZM 14.8929 -0.707107L -0.707107 14.8929L 0.707106 16.3071L 16.3071 0.707107L 14.8929 -0.707107Z"/>
<path id="path8_stroke" d="M 8.18211 0.707107C 8.57263 0.316583 8.57263 -0.316582 8.18211 -0.707107C 7.79158 -1.09763 7.15842 -1.09763 6.76789 -0.707107L 8.18211 0.707107ZM -0.707107 6.76789C -1.09763 7.15841 -1.09763 7.79158 -0.707108 8.1821C -0.316583 8.57263 0.316582 8.57263 0.707106 8.1821L -0.707107 6.76789ZM 6.76789 -0.707107L -0.707107 6.76789L 0.707106 8.1821L 8.18211 0.707107L 6.76789 -0.707107Z"/>
<path id="path9_stroke" d="M 0 0L 0 -1C -0.552285 -1 -1 -0.552285 -1 2.22045e-16L 0 0ZM 24.375 0L 25.375 0C 25.375 -0.552285 24.9273 -1 24.375 -1L 24.375 0ZM 24.375 24.375L 24.375 25.375C 24.9273 25.375 25.375 24.9273 25.375 24.375L 24.375 24.375ZM 0 24.375L -1 24.375C -1 24.9273 -0.552285 25.375 2.22045e-16 25.375L 0 24.375ZM 0 1L 24.375 1L 24.375 -1L 0 -1L 0 1ZM 23.375 0L 23.375 5.941L 25.375 5.941L 25.375 0L 23.375 0ZM 23.375 5.941L 23.375 24.375L 25.375 24.375L 25.375 5.941L 23.375 5.941ZM 24.375 23.375L 0 23.375L 0 25.375L 24.375 25.375L 24.375 23.375ZM 1 24.375L 1 0L -1 0L -1 24.375L 1 24.375Z"/>
<path id="path10_stroke" d="M -1 0L -1 16.25L 1 16.25L 1 0L -1 0Z"/>
</defs>
</svg>

<?xml version="1.0" encoding="UTF-8"?>
<svg version="1.1" viewBox="0 0 67 68" xmlns="http://www.w3.org/2000/svg" xmlns:xlink="http://www.w3.org/1999/xlink">
<g transform="translate(-2409 -1821)">
<use transform="translate(2450.6 1822.8)" fill="#3D54FF" xlink:href="#k"/>
<use transform="translate(2410 1822.8)" fill="#3D54FF" xlink:href="#j"/>
<use transform="translate(2434.4 1834.2)" fill="#3D54FF" xlink:href="#a"/>
<use transform="translate(2450.6 1863.4)" fill="#3D54FF" xlink:href="#i"/>
<use transform="translate(2410 1864.3)" fill="#FF842B" xlink:href="#h"/>
<use transform="translate(2410.5 1863.4)" fill="#FF842B" xlink:href="#g"/>
<use transform="translate(2410 1863.4)" fill="#FF842B" xlink:href="#f"/>
<use transform="translate(2418.8 1871.6)" fill="#FF842B" xlink:href="#e"/>
<use transform="translate(2426.9 1879.7)" fill="#FF842B" xlink:href="#d"/>
<use transform="translate(2410 1863.4)" fill="#3D54FF" xlink:href="#c"/>
<use transform="translate(2434.4 1876.4)" fill="#3D54FF" xlink:href="#a"/>
<use transform="translate(2463.6 1847.2)" fill="#3D54FF" xlink:href="#b"/>
<use transform="translate(2421.4 1847.2)" fill="#3D54FF" xlink:href="#b"/>
</g>
<defs>
<path id="k" d="m0 0v-1c-0.55228 0-1 0.44772-1 1l1-2.2204e-16zm24.375 0h1c0-0.55228-0.4477-1-1-1v1zm0 24.375v1c0.5523 0 1-0.4477 1-1h-1zm-24.375 0h-1c0 0.5523 0.44772 1 1 1l-2.2204e-16 -1zm0-23.375h24.375v-2h-24.375v2zm23.375-1v24.375h2v-24.375h-2zm1 23.375h-24.375v2h24.375v-2zm-23.375 1v-5.4844h-2v5.4844h2zm0-5.4844v-18.891h-2v18.891h2z"/>
<path id="j" d="m0 0v-1c-0.55228 0-1 0.44772-1 1l1-2.2204e-16zm24.375 0h1c0-0.55228-0.4477-1-1-1v1zm0 24.375v1c0.5523 0 1-0.4477 1-1h-1zm-24.375 0h-1c0 0.5523 0.44772 1 1 1l-2.2204e-16 -1zm0-23.375h24.375v-2h-24.375v2zm23.375-1v19.653h2v-19.653h-2zm0 19.653v4.7222h2v-4.7222h-2zm1 3.7222h-24.375v2h24.375v-2zm-23.375 1v-24.375h-2v24.375h2z"/>
<path id="a" d="m0 1h16.25v-2h-16.25v2z"/>
<path id="i" d="m0 0v-1c-0.55228 0-1 0.44772-1 1l1-2.2204e-16zm24.375 0h1c0-0.55228-0.4477-1-1-1v1zm0 24.375v1c0.5523 0 1-0.4477 1-1h-1zm-24.375 0h-1c0 0.5523 0.44772 1 1 1l-2.2204e-16 -1zm0-23.375h6.3992v-2h-6.3992v2zm6.3992 0h17.976v-2h-17.976v2zm16.976-1v24.375h2v-24.375h-2zm1 23.375h-24.375v2h24.375v-2zm-23.375 1v-24.375h-2v24.375h2z"/>
<path id="h" d="m24.27 0.70711c0.3905-0.39052 0.3905-1.0237 0-1.4142-0.3905-0.39052-1.0237-0.39052-1.4142 0l1.4142 1.4142zm-24.977 22.148c-0.39052 0.3905-0.39052 1.0237 0 1.4142 0.39052 0.3905 1.0237 0.3905 1.4142 0l-1.4142-1.4142zm23.563-23.563l-23.563 23.563 1.4142 1.4142 23.562-23.562-1.4142-1.4142z"/>
<path id="g" d="m8.3446 0.70711c0.39052-0.39052 0.39052-1.0237 0-1.4142-0.39053-0.39052-1.0237-0.39052-1.4142 0l1.4142 1.4142zm-9.0517 6.2233c-0.39052 0.39053-0.39052 1.0237 1e-6 1.4142 0.39052 0.39052 1.0237 0.39052 1.4142 0l-1.4142-1.4142zm7.6375-7.6375l-7.6375 7.6375 1.4142 1.4142 7.6375-7.6375-1.4142-1.4142z"/>
<path id="f" d="m16.957 0.70711c0.3905-0.39052 0.3905-1.0237 0-1.4142-0.3905-0.39052-1.0237-0.39052-1.4142 0l1.4142 1.4142zm-17.664 14.836c-0.39052 0.3905-0.39052 1.0237 0 1.4142 0.39052 0.3905 1.0237 0.3905 1.4142 0l-1.4142-1.4142zm16.25-16.25l-16.25 16.25 1.4142 1.4142 16.25-16.25-1.4142-1.4142z"/>
<path id="e" d="m16.307 0.70711c0.3905-0.39052 0.3905-1.0237 0-1.4142-0.3905-0.39052-1.0237-0.39052-1.4142 0l1.4142 1.4142zm-17.014 14.186c-0.39052 0.3905-0.39052 1.0237 0 1.4142 0.39052 0.3905 1.0237 0.3905 1.4142 0l-1.4142-1.4142zm15.6-15.6l-15.6 15.6 1.4142 1.4142 15.6-15.6-1.4142-1.4142z"/>
<path id="d" d="m8.1821 0.70711c0.39052-0.39052 0.39052-1.0237 0-1.4142-0.39053-0.39052-1.0237-0.39052-1.4142 0l1.4142 1.4142zm-8.8892 6.0608c-0.39052 0.39052-0.39052 1.0237-1e-6 1.4142 0.39052 0.39053 1.0237 0.39053 1.4142 0l-1.4142-1.4142zm7.475-7.475l-7.475 7.475 1.4142 1.4142 7.475-7.475-1.4142-1.4142z"/>
<path id="c" d="m0 0v-1c-0.55228 0-1 0.44772-1 1l1-2.2204e-16zm24.375 0h1c0-0.55228-0.4477-1-1-1v1zm0 24.375v1c0.5523 0 1-0.4477 1-1h-1zm-24.375 0h-1c0 0.5523 0.44772 1 1 1l-2.2204e-16 -1zm0-23.375h24.375v-2h-24.375v2zm23.375-1v5.941h2v-5.941h-2zm0 5.941v18.434h2v-18.434h-2zm1 17.434h-24.375v2h24.375v-2zm-23.375 1v-24.375h-2v24.375h2z"/>
<path id="b" d="m-1 0v16.25h2v-16.25h-2z"/>
</defs>
</svg>
